public/images/farms/usdc-busd.svg

<svg width="160" height="160" viewBox="0 0 160 160" fill="none" xmlns="http://www.w3.org/2000/svg">
<g clip-path="url(#clip0)">
<path d="M48.045 119.028C44.8667 131.172 63.0449 146.449 88.6472 153.149C114.25 159.849 137.581 155.436 140.759 143.291C143.937 131.146 125.759 115.87 100.157 109.169C74.5546 102.469 51.2233 106.883 48.045 119.028Z" fill="#606063"/>
<path d="M136.924 149.273L152.346 132.988L42.9922 104.369L48.7128 126.187L136.924 149.273Z" fill="#606063"/>
<path d="M49.9337 108.293L8.07245 97.338C6.25796 96.8632 4.41259 97.9924 4.00962 99.8242L3.54142 101.953C2.6084 106.194 5.11954 110.433 9.28748 111.653L51.0994 123.892L49.9337 108.293Z" fill="#606063"/>
<path d="M43.2026 98.7096C39.5089 112.824 61.5267 130.811 92.3808 138.886C123.235 146.96 151.241 142.064 154.935 127.95C158.629 113.836 136.611 95.8488 105.757 87.7742C74.9028 79.6996 46.8963 84.5955 43.2026 98.7096Z" fill="url(#paint0_linear)"/>
<path fill-rule="evenodd" clip-rule="evenodd" d="M127.673 123.286C134.771 128.506 138.919 134.152 139.538 139.157L142.516 138.789C141.744 132.551 136.779 126.258 129.45 120.869C122.061 115.434 112.011 110.721 100.537 107.718C89.0628 104.716 77.9927 103.901 68.888 105.019C59.8593 106.128 52.4479 109.182 48.7196 114.242L51.1348 116.021C54.1263 111.961 60.5082 109.071 69.2536 107.997C77.9231 106.933 88.6081 107.698 99.7773 110.621C110.946 113.544 120.636 118.111 127.673 123.286Z" fill="#606063"/>
<path fill-rule="evenodd" clip-rule="evenodd" d="M56.7343 118.739C48.0136 111.615 44.7365 104.698 46.1049 99.4692C47.4733 94.2403 53.7186 89.8155 64.8112 87.8763C75.6178 85.9872 89.8893 86.7226 104.997 90.6764C120.105 94.6302 132.908 100.98 141.403 107.921C150.124 115.045 153.401 121.962 152.033 127.191C150.664 132.42 144.419 136.844 133.326 138.784C122.52 140.673 108.248 139.937 93.1403 135.984C78.0323 132.03 65.2301 125.68 56.7343 118.739ZM92.3808 138.886C61.5267 130.811 39.5089 112.824 43.2026 98.7096C46.8963 84.5955 74.9028 79.6996 105.757 87.7742C136.611 95.8488 158.629 113.836 154.935 127.95C151.241 142.064 123.235 146.96 92.3808 138.886Z" fill="#979797"/>
<path fill-rule="evenodd" clip-rule="evenodd" d="M45.1673 124.049L40.2305 104.926L43.1352 104.176L48.0721 123.299L45.1673 124.049Z" fill="url(#paint1_linear)"/>
<path fill-rule="evenodd" clip-rule="evenodd" d="M43.4691 106.189C43.4241 106.041 43.3812 105.893 43.3406 105.746C43.2656 105.473 43.1983 105.2 43.1386 104.929L42.997 104.389C42.9948 104.38 43.0025 104.372 43.0109 104.375C43.019 104.377 43.0266 104.37 43.0251 104.362C43.0236 104.353 43.0222 104.345 43.0207 104.337C42.9732 104.072 42.9333 103.807 42.9009 103.543C42.8931 103.479 42.8857 103.416 42.8788 103.352C42.8066 102.689 42.7824 102.031 42.8078 101.378C42.8079 101.378 42.8079 101.378 42.8079 101.377C42.8432 100.475 42.9734 99.5849 43.2025 98.7095C46.8962 84.5954 74.9027 79.6994 105.757 87.774C136.611 95.8486 158.629 113.836 154.935 127.95C154.706 128.826 154.383 129.666 153.972 130.469C153.972 130.469 153.972 130.47 153.972 130.47C153.528 131.338 152.981 132.163 152.337 132.945C152.332 132.951 152.326 132.958 152.321 132.964C152.319 132.967 152.318 132.969 152.318 132.972C152.318 132.977 152.322 132.982 152.327 132.983C152.332 132.984 152.335 132.989 152.336 132.993C152.336 132.996 152.335 133 152.333 133.002L151.725 133.644C151.655 133.72 151.584 133.795 151.511 133.87L150.275 135.175L150.273 135.177L138.793 147.299C131.986 156.33 111.197 159.051 88.6472 153.149C66.3446 147.312 49.6757 134.967 47.8505 123.854C47.7571 123.285 47.3667 122.8 46.8135 122.639L10.1271 111.91C5.98342 110.698 3.4722 106.499 4.36483 102.275L4.82393 100.103C5.21371 98.2581 7.06553 97.1133 8.88976 97.589L43.1386 106.52C43.3391 106.573 43.5217 106.39 43.4691 106.189ZM39.8119 102.553C39.7482 101.009 39.9029 99.4681 40.3002 97.9499C42.6255 89.0648 52.2303 83.9845 63.7779 81.9658C75.6114 79.8971 90.7702 80.751 106.516 84.8718C122.262 88.9926 135.896 95.6738 145.199 103.274C154.277 110.691 160.162 119.825 157.837 128.71C157.28 130.839 156.285 132.774 154.936 134.499C154.821 134.697 154.679 134.887 154.511 135.065L153.923 135.686C153.92 135.689 153.916 135.693 153.913 135.697C153.836 135.779 153.759 135.861 153.68 135.943C153.677 135.946 153.673 135.95 153.67 135.953L141.082 149.246C136.911 154.652 129.056 157.706 119.984 158.802C110.684 159.926 99.4667 159.082 87.8877 156.051C76.4351 153.054 66.3397 148.366 58.8095 142.91C51.73 137.78 46.4882 131.648 45.0667 125.253L9.28503 114.789C3.63618 113.137 0.212785 107.413 1.42965 101.655L1.88875 99.4823C2.63251 95.9628 6.16596 93.7783 9.64679 94.6861L39.8119 102.553Z" fill="url(#paint2_linear)"/>
<circle cx="57" cy="29" r="29" fill="#F0B90B"/>
<path fill-rule="evenodd" clip-rule="evenodd" d="M44.658 21.6339L57.012 9.27979L61.9379 14.2057L49.5839 26.5598L44.658 21.6339ZM44.6669 36.3966L64.4099 16.6536L69.3358 21.5796L49.5929 41.3225L44.6669 36.3966ZM71.7937 24.0514L52.0508 43.7944L56.9767 48.7203L76.7196 28.9773L71.7937 24.0514ZM37.28 29.0103L42.2059 24.0844L47.1318 29.0103L42.2059 33.9362L37.28 29.0103Z" fill="#FFFDFA"/>
<g style="mix-blend-mode:multiply" opacity="0.1">
<path fill-rule="evenodd" clip-rule="evenodd" d="M57 55C71.3594 55 83 43.3594 83 29C83 14.6406 71.3594 3 57 3C42.6406 3 31 14.6406 31 29C31 43.3594 42.6406 55 57 55ZM57 58C73.0163 58 86 45.0163 86 29C86 12.9837 73.0163 0 57 0C40.9837 0 28 12.9837 28 29C28 45.0163 40.9837 58 57 58Z" fill="#191326"/>
</g>
<path d="M106.5 116C130.524 116 150 96.5244 150 72.5C150 48.4756 130.524 29 106.5 29C82.4756 29 63 48.4756 63 72.5C63 96.5244 82.4756 116 106.5 116Z" fill="#2775CA"/>
<path d="M98.7488 102.957C98.7488 103.966 97.9326 104.542 96.9723 104.254C83.8166 100.076 74.3101 87.737 74.3101 73.1891C74.3101 58.641 83.8647 46.3016 96.9723 42.1245C97.9806 41.8364 98.7488 42.4126 98.7488 43.4208V45.9655C98.7488 46.6378 98.2207 47.4539 97.5485 47.694C87.1776 51.4391 79.7355 61.4258 79.7355 73.141C79.7355 84.8562 87.1776 94.843 97.5964 98.6841C98.2207 98.9241 98.7968 99.6924 98.7968 100.413V102.957H98.7488Z" fill="white"/>
<path d="M109.321 92.9057C109.321 93.6738 108.697 94.25 107.977 94.25H105.288C104.52 94.25 103.943 93.6259 103.943 92.9057V88.5844C97.9899 87.7682 95.1091 84.4553 94.3409 79.942C94.1969 79.1738 94.821 78.4536 95.5892 78.4536H98.662C99.2863 78.4536 99.8624 78.9337 100.006 79.558C100.583 82.2467 102.119 84.3112 106.92 84.3112C110.425 84.3112 112.922 82.3427 112.922 79.4139C112.922 76.4851 111.434 75.3808 106.296 74.5166C98.662 73.5563 95.0611 71.2516 95.0611 65.25C95.0611 60.6407 98.518 57.0878 103.943 56.3195V52.0943C103.943 51.3262 104.568 50.75 105.288 50.75H107.977C108.745 50.75 109.321 51.3741 109.321 52.0943V56.4156C113.69 57.1837 116.475 59.6805 117.387 63.8096C117.579 64.5778 116.955 65.3461 116.139 65.3461H113.258C112.634 65.3461 112.154 64.9139 111.962 64.3378C111.193 61.697 109.321 60.5927 106.056 60.5927C102.455 60.5927 100.583 62.3212 100.583 64.7699C100.583 67.3626 101.639 68.6589 107.16 69.4272C114.65 70.4355 118.492 72.5961 118.492 78.9337C118.492 83.7831 114.891 87.6722 109.321 88.5844V92.9057Z" fill="white"/>
<path d="M116.154 104.319C115.146 104.607 114.378 104.031 114.378 103.023V100.478C114.378 99.7098 114.858 99.0376 115.578 98.7495C125.997 94.9084 133.439 84.9217 133.439 73.2065C133.439 61.4912 125.949 51.5525 115.53 47.7114C114.906 47.4713 114.33 46.7032 114.33 45.983V43.4382C114.33 42.43 115.146 41.8058 116.106 42.1419C129.262 46.319 138.769 58.6584 138.769 73.2065C138.817 87.7545 129.31 100.094 116.154 104.319Z" fill="white"/>
<g style="mix-blend-mode:multiply" opacity="0.2">
<path fill-rule="evenodd" clip-rule="evenodd" d="M106.5 113.163C128.958 113.163 147.163 94.9576 147.163 72.5C147.163 50.0424 128.958 31.837 106.5 31.837C84.0424 31.837 65.837 50.0424 65.837 72.5C65.837 94.9576 84.0424 113.163 106.5 113.163ZM106.5 116C130.524 116 150 96.5244 150 72.5C150 48.4756 130.524 29 106.5 29C82.4756 29 63 48.4756 63 72.5C63 96.5244 82.4756 116 106.5 116Z" fill="#191326"/>
</g>
</g>
<defs>
<linearGradient id="paint0_linear" x1="105.757" y1="87.7742" x2="92.3808" y2="138.886" gradientUnits="userSpaceOnUse">
<stop stop-color="#404042"/>
<stop offset="1" stop-color="#48484B"/>
</linearGradient>
<linearGradient id="paint1_linear" x1="46.5673" y1="105.096" x2="41.7353" y2="123.129" gradientUnits="userSpaceOnUse">
<stop stop-color="#404042"/>
<stop offset="1" stop-color="#48484B"/>
</linearGradient>
<linearGradient id="paint2_linear" x1="73.4948" y1="80.1687" x2="89.0896" y2="164.62" gradientUnits="userSpaceOnUse">
<stop stop-color="#404042"/>
<stop offset="1" stop-color="#48484B"/>
</linearGradient>
<clipPath id="clip0">
<rect width="160" height="160" fill="white"/>
</clipPath>
</defs>
</svg>

<svg xmlns="http://www.w3.org/2000/svg" width="160" height="160" fill="none"  xmlns:v="https://vecta.io/nano"><g clip-path="url(#D)"><g fill="#606063"><path d="M48.045 119.028c-3.178 12.144 15 27.421 40.602 34.121s48.934 2.287 52.112-9.858-15-27.421-40.602-34.122-48.934-2.286-52.112 9.859z"/><path d="M136.924 149.273l15.422-16.285-109.354-28.619 5.721 21.818 88.211 23.086z"/><path d="M49.934 108.293L8.072 97.338c-1.814-.475-3.66.654-4.063 2.486l-.468 2.129a8.26 8.26 0 0 0 5.746 9.7l41.812 12.239-1.166-15.599z"/></g><path d="M43.203 98.71c-3.694 14.114 18.324 32.101 49.178 40.176s58.86 3.178 62.554-10.936-18.324-32.101-49.178-40.176-58.861-3.179-62.554 10.935z" fill="url(#A)"/><g fill-rule="evenodd"><path d="M127.673 123.286c7.098 5.22 11.246 10.866 11.865 15.871l2.978-.368c-.772-6.238-5.737-12.531-13.066-17.92-7.389-5.435-17.439-10.148-28.913-13.151s-22.544-3.817-31.649-2.699c-9.029 1.109-16.44 4.163-20.168 9.223l2.415 1.779c2.992-4.06 9.373-6.95 18.119-8.024 8.67-1.064 19.354-.299 30.524 2.624s20.859 7.49 27.896 12.665z" fill="#606063"/><path d="M56.734 118.739c-8.721-7.124-11.998-14.041-10.629-19.27s7.614-9.654 18.706-11.593c10.807-1.889 25.078-1.154 40.186 2.8s27.911 10.304 36.406 17.245c8.721 7.124 11.998 14.041 10.63 19.27s-7.614 9.653-18.707 11.593c-10.806 1.889-25.078 1.153-40.186-2.8s-27.91-10.304-36.406-17.245zm35.646 20.147c-30.854-8.075-52.872-26.062-49.178-40.176s31.7-19.01 62.554-10.935 52.872 26.062 49.178 40.176-31.7 19.01-62.554 10.936z" fill="#979797"/><path d="M45.167 124.049l-4.937-19.123 2.905-.75 4.937 19.123-2.905.75z" fill="url(#B)"/><path d="M43.469 106.189l-.128-.443-.202-.817-.142-.54c.022-.012.03-.019.028-.027l-.004-.025-.12-.794-.022-.191a13.4 13.4 0 0 1-.071-1.974c.035-.903.166-1.793.395-2.668 3.694-14.114 31.7-19.01 62.555-10.936s52.872 26.062 49.178 40.176a12.4 12.4 0 0 1-.963 2.519 13.7 13.7 0 0 1-1.635 2.476l-.016.019c.011.02.014.025.015.029l-.611.651-12.932 13.655c-6.807 9.031-27.596 11.752-50.146 5.85-22.303-5.837-38.971-18.182-40.797-29.295-.093-.569-.484-1.054-1.037-1.215L10.127 111.91a8.26 8.26 0 0 1-5.762-9.635l.459-2.172c.39-1.845 2.242-2.99 4.066-2.514l34.249 8.931a.27.27 0 0 0 .331-.331zm-3.657-3.636c-.064-1.544.091-3.085.488-4.603 2.325-8.885 11.93-13.965 23.478-15.984 11.834-2.069 26.992-1.215 42.738 2.906s29.38 10.802 38.683 18.402c9.078 7.417 14.963 16.551 12.638 25.436-.557 2.129-1.552 4.064-2.901 5.789a3.08 3.08 0 0 1-.425.566l-13.429 14.181c-4.171 5.406-12.026 8.46-21.098 9.556-9.3 1.124-20.517.28-32.096-2.751-11.453-2.997-21.548-7.685-29.078-13.141-7.08-5.13-12.321-11.262-13.743-17.657L9.285 114.789a11.26 11.26 0 0 1-7.855-13.134l.459-2.173c.744-3.519 4.277-5.704 7.758-4.796l30.165 7.867z" fill="url(#C)"/></g><circle cx="57" cy="29" r="29" fill="#f0b90b"/><path fill-rule="evenodd" d="M44.658 21.634L57.012 9.28l4.926 4.926L49.584 26.56l-4.926-4.926zm.009 14.763L64.41 16.654l4.926 4.926-19.743 19.743-4.926-4.926zm27.127-12.345L52.051 43.794l4.926 4.926L76.72 28.977l-4.926-4.926zM37.28 29.01l4.926-4.926 4.926 4.926-4.926 4.926-4.926-4.926z" fill="#fffdfa"/><g style="mix-blend-mode:multiply" opacity=".1"><path fill-rule="evenodd" d="M57 55c14.359 0 26-11.641 26-26S71.359 3 57 3 31 14.641 31 29s11.641 26 26 26zm0 3c16.016 0 29-12.984 29-29S73.016 0 57 0 28 12.984 28 29s12.984 29 29 29z" fill="#191326"/></g><path d="M106.5 116c24.024 0 43.5-19.476 43.5-43.5S130.524 29 106.5 29 63 48.476 63 72.5 82.476 116 106.5 116z" fill="#2775ca"/><g fill="#fff"><path d="M98.749 102.957c0 1.009-.816 1.585-1.776 1.297A32.58 32.58 0 0 1 74.31 73.189c0-14.548 9.555-26.887 22.662-31.065 1.008-.288 1.776.288 1.776 1.296v2.545c0 .672-.528 1.488-1.2 1.729-10.371 3.745-17.813 13.732-17.813 25.447s7.442 21.702 17.861 25.543c.624.24 1.2 1.008 1.2 1.729v2.544h-.048zm10.572-10.051c0 .768-.624 1.344-1.344 1.344h-2.689c-.768 0-1.345-.624-1.345-1.344v-4.321c-5.953-.816-8.834-4.129-9.602-8.642a1.28 1.28 0 0 1 1.248-1.488h3.073c.624 0 1.2.48 1.344 1.104.577 2.689 2.113 4.753 6.914 4.753 3.505 0 6.002-1.969 6.002-4.897s-1.488-4.033-6.626-4.897c-7.634-.96-11.235-3.265-11.235-9.267 0-4.609 3.457-8.162 8.882-8.931v-4.225c0-.768.625-1.344 1.345-1.344h2.689c.768 0 1.344.624 1.344 1.344v4.321c4.369.768 7.154 3.265 8.066 7.394.192.768-.432 1.537-1.248 1.537h-2.881c-.624 0-1.104-.432-1.296-1.008-.769-2.641-2.641-3.745-5.906-3.745-3.601 0-5.473 1.728-5.473 4.177 0 2.593 1.056 3.889 6.577 4.657 7.49 1.008 11.332 3.169 11.332 9.507 0 4.849-3.601 8.739-9.171 9.651v4.321zm6.833 11.413c-1.008.288-1.776-.288-1.776-1.296v-2.545c0-.768.48-1.44 1.2-1.728 10.419-3.841 17.861-13.828 17.861-25.543s-7.49-21.654-17.909-25.495c-.624-.24-1.2-1.008-1.2-1.728v-2.545c0-1.008.816-1.632 1.776-1.296a32.58 32.58 0 0 1 22.663 31.065c.048 14.548-9.459 26.887-22.615 31.112z"/></g><g style="mix-blend-mode:multiply" opacity=".2"><path fill-rule="evenodd" d="M106.5 113.163c22.458 0 40.663-18.205 40.663-40.663S128.958 31.837 106.5 31.837 65.837 50.042 65.837 72.5s18.205 40.663 40.663 40.663zm0 2.837c24.024 0 43.5-19.476 43.5-43.5S130.524 29 106.5 29 63 48.476 63 72.5 82.476 116 106.5 116z" fill="#191326"/></g></g><defs><linearGradient id="A" x1="105.757" y1="87.774" x2="92.381" y2="138.886" gradientUnits="userSpaceOnUse"><stop stop-color="#404042"/><stop offset="1" stop-color="#48484b"/></linearGradient><linearGradient id="B" x1="46.567" y1="105.096" x2="41.735" y2="123.129" gradientUnits="userSpaceOnUse"><stop stop-color="#404042"/><stop offset="1" stop-color="#48484b"/></linearGradient><linearGradient id="C" x1="73.495" y1="80.169" x2="89.09" y2="164.62" gradientUnits="userSpaceOnUse"><stop stop-color="#404042"/><stop offset="1" stop-color="#48484b"/></linearGradient><clipPath id="D"><path fill="#fff" d="M0 0h160v160H0z"/></clipPath></defs></svg>
